X: 8347
T: Coull Wedding, The
R: waltz
M: 3/4
K: Gmajor
D GA|B2 BA Bd|B3A G2|E2 ED EG|D3 D GA|B2 BA Bd|B3A G2|A3 G AB|A3D GA|
B2 BA Bd|B3A G2|E2 ED EG|D3 D GA|B2 BA Bd|A2 AG FA|G2 GF GA|G3:|
G Bc|d2 dB de|d2 g2 f2|e3f g2|d4 Bc|d2 c2 B2|A2 G2 F2|E6|D3 G Bc|
d2 dB de|d2 g2 f2|e3f g2|d4 cB|A2 c2 e2|F2 G2 A2|G2 GF GA|G3 G Bc|
d2 dB de|d2 b2 a2|g2 f2 e2|d4 Bc|d2 c2 B2|A2 G2 F2|E6|F3 D GA|
B2 BA Bc|B3A G2|E2 ED EG|D3 D GA|B2 BA Bd|A2 AG FA|G2 GF GA|G3||

